X:1
T:Title
%%score ( 1 2 ) ( 3 4 )
L:1/8
Q:1/4=115
M:4/4
K:C
V:1 treble nm="Grand Piano, Staff"
V:2 treble 
V:3 bass nm="Choir Pad, Holmfirth, CMD"
V:4 bass 
V:1
 [CE]2 [CE][DF] [EG]2 G2 | [CA]2 [FB]2 [Ec]3 [DB] | [CA]2 [EG]2 [DF]2 [CE]2 | [CE]4 [B,D]4 | %4
w: By~Benjamin~Gill~(1843\-?) * * * *||||
 [CE]2 [CE][DF] [EG]2 G2 | [FA]2 [FB]2 [Ec]3 [EB] | [EA]2 [GA]2 [Fd]2 [^Fc]2 | B4- [FB]4 | %8
w: ||||
 [Ec]2 [Ec][Ec] [GB]2 [FA]2 | [FA]2 [EG]2 [EG]3 [EG] | [FA]2 A2 [Ae]2 [Ad]2 | c4 B4 | %12
w: ||||
 [Ec]2 [Ec][Ec] [EB]2 [FA]2 | [FA]2 [EG]2 [EG]2 [Gc]2 | [Ae]2 [Ad]2 [Gc]2 [FB]2 | [Ec]8 |] %16
w: ||||
V:2
 x8 | x8 | x8 | x8 | x8 | x8 | x8 | G4 z4 | x8 | x8 | x8 | G8 | x8 | x8 | x8 | x8 |] %16
V:3
 [C,G,]2 [C,G,][C,G,] [C,C]2 [E,C]2 | [F,A,]2 [D,G,]2 [C,G,]3 [E,^G,] | %2
 [F,A,]2 [^C,_B,]2 [D,A,]2 G,-[F,G,] | G,8 | [C,G,]2 [C,G,][C,G,] [C,C]2 [E,C]2 | %5
 [F,C]2 [D,D]2 [A,C]3 [^G,D] | [A,C]2 [A,^C]2 [D,D]2 [D,D]2 | [G,D]8 | %8
 [C,C]2 [C,G,][C,G,] C,-[C,G,]A,B, | [C,C]2 [C,C]2 [C,C]3 [C,_B,] | %10
 [F,A,]2 [F,C]2 [^F,A,]2 [F,D]2 | E4 D4 | [A,C]2 [A,C][A,C][K:bass] [G,C]2 [F,C]2 | %13
 [C,C]2 [C,C]2 [C,C]2 [E,C]2 | [F,C]2 [F,D]2 [G,E]2 [G,D]2 | [C,C]8 |] %16
V:4
 x8 | x8 | z4 z2 .E,2 | x8 | x8 | x8 | x8 | x8 | z4 .F,2 C,2 | x8 | x8 | G,8 | x4[K:bass] x4 | x8 | %14
 x8 | x8 |] %16

